src/svg/twitter.svg

<?xml version="1.0" encoding="UTF-8"?>
<svg width="52px" height="52px" viewBox="0 0 52 52" version="1.1" xmlns="http://www.w3.org/2000/svg" xmlns:xlink="http://www.w3.org/1999/xlink">
    <!-- Generator: Sketch 47.1 (45422) - http://www.bohemiancoding.com/sketch -->
    <title>twitter</title>
    <desc>Created with Sketch.</desc>
    <defs></defs>
    <g id="Icons" stroke="none" stroke-width="1" fill="none" fill-rule="evenodd">
        <g id="twitter">
            <circle id="Oval" fill="#BDC3C7" cx="26" cy="26" r="26"></circle>
            <path d="M41.4047783,16.0455582 C40.2445032,16.5555548 39.0055655,16.9029818 37.7010754,17.0616182 C39.0304753,16.2605696 40.0530906,14.998033 40.5368663,13.491642 C39.2900623,14.2192721 37.9082206,14.7489344 36.4372278,15.0439196 C35.2625312,13.7866272 33.5883264,13 31.7292642,13 C28.1671542,13 25.2789215,15.8882327 25.2789215,19.4464096 C25.2789215,19.9577172 25.3379186,20.4493592 25.4454243,20.9200245 C20.0832491,20.6669927 15.3307101,18.0920998 12.1501142,14.1996064 C11.5902979,15.1461811 11.2769581,16.2461481 11.2769581,17.4444435 C11.2769581,19.6863309 12.4175675,21.6568319 14.1455251,22.8144849 C13.0875116,22.7803977 12.0924282,22.4893456 11.2245163,22.006881 L11.2245163,22.0868547 C11.2245163,25.2136977 13.4441159,27.8213667 16.3979009,28.4152702 C15.8564392,28.5607963 15.2848235,28.639459 14.6987862,28.639459 C14.287118,28.639459 13.8924934,28.6001276 13.4978688,28.5267091 C14.3251383,31.0871805 16.7033744,32.9541089 19.5339212,33.0065508 C17.3313651,34.7358195 14.5401498,35.766301 11.533923,35.766301 C11.0226153,35.766301 10.5126187,35.736147 10,35.678461 C12.8698781,37.5060581 16.2510638,38.57456 19.9075691,38.57456 C31.7777729,38.57456 38.2608917,28.7469647 38.2608917,20.2382809 C38.2608917,19.9642725 38.2608917,19.6876419 38.2412261,19.4123224 C39.5011406,18.5090122 40.6011075,17.3670918 41.4663974,16.0717791 L41.4047783,16.0455582 Z" id="Shape" fill="#FFFFFF" fill-rule="nonzero"></path>
        </g>
    </g>
</svg>

<svg width="52" height="52" xmlns="http://www.w3.org/2000/svg"><path d="M26 52c14.36 0 26-11.64 26-26S40.36 0 26 0 0 11.64 0 26s11.64 26 26 26zm15.405-35.954c-1.16.51-2.4.857-3.704 1.016a6.5 6.5 0 0 0 2.836-3.57 13.324 13.324 0 0 1-4.1 1.552 6.45 6.45 0 0 0-11.158 4.402 6.6 6.6 0 0 0 .166 1.474c-5.362-.253-10.114-2.828-13.295-6.72a6.322 6.322 0 0 0-.873 3.244 6.451 6.451 0 0 0 2.869 5.37 6.43 6.43 0 0 1-2.921-.807v.08a6.454 6.454 0 0 0 5.173 6.328 6.55 6.55 0 0 1-2.9.112 6.472 6.472 0 0 0 6.036 4.48 12.937 12.937 0 0 1-8 2.76c-.511 0-1.021-.03-1.534-.089a18.349 18.349 0 0 0 9.908 2.897c11.87 0 18.353-9.828 18.353-18.337 0-.274 0-.55-.02-.826a13.026 13.026 0 0 0 3.225-3.34l-.061-.026z" fill="#D8D8D8" fill-rule="evenodd"/></svg>
